X:1
T:Honey that I love so well
T:Harry Freeman
%%score [ 1 2 3 4 ]
L:1/8
M:4/4
K:Bb
V:1 treble-8 nm="Tenor"
V:2 treble-8 nm="Vokal"
V:3 bass nm="Baryton"
V:4 bass nm="Bass"
V:1
 F2 | d d2 z d d2 z | e2 e2 d3 d | d d d d _f2 f2 | (=f2 _f2 e2) z F | d2 f2 !fermata!^f3 d | %6
w: Oh,|Hon- ey, Hon- ey,|Bless your heart; My|Hon- ey that I love so|well, so well. For|I've been true, my|
 e2 e2 !fermata!^c2 _d d | d d e f !fermata!=e2 _e2 | d6 |] %9
w: gal, to you, To my|Hon- ey that I love so|well.|
V:2
 F2 | B B2 z A A2 z | G2 B2 F3 F | B B B A G2 c2 | c4- c2 z F | B2 B2 !fermata!A3 D | %6
w: Oh,|Hon- ey, Hon- ey,|Bless your heart; My|Hon- ey that I love so|well. _ For|I've been true, my|
 G2 G2 !fermata!B2 A G | F B c d !fermata!G2 c2 | B6 |] %9
w: gal, to you, To my|Hon- ey that I love so|well.|
V:3
 F,2 | F, F,2 z ^F, F,2 z | B,2 G,2 B,3 =F, | F, F, F, F, B,2 B,2 | A,2 (B,G,) A,2 z F, | %5
w: Oh,|Hon- ey, Hon- ey,|Bless your heart; My|Hon- ey that I love so|well, so _ well. For|
 F,2 D2 !fermata!C3 C | B,2 B,2 !fermata!G,2 A, B, | B, F, A, B, (B,!fermata!G,) A,2 | F,6 |] %9
w: I've been true, my|gal, to you, To my|Hon- ey that I love _ so|well.|
V:4
 F,2 | B,, B,,2 z D, D,2 z | E,2 E,2 B,,3 B,, | B,, B,, B,, B,, C,2 C,2 | F,2 C,2 F,2 z F, | %5
w: Oh,|Hon- ey, Hon- ey,|Bless your heart; My|Hon- ey that I love so|well, so well. For|
 B,,2 B,,2 !fermata!D,3 D, | E,2 E,2 !fermata!=E,2 E, E, | F, B,, F, F, !fermata!C,2 F,2 | B,,6 |] %9
w: I've been true, my|gal, to you, To my|Hon- ey that I love so|well.|

